X: 5
T: Germantown Hook  v.2
P: piffero secondo a0212
O: Greg Bacon
%R: jig, march
F: http://ancients.sudburymuster.org/mus/ssp/pdf/ashgroveF.pdf
Z: 2019 John Chambers <jc:trillian.mit.edu>
M: 6/8
L: 1/8
K: Em
z |\
(B,2A,) B,2D | B,CF GFG | F2z G2A | B3- B2d |\
B,CD EFG | F2G A2B | E<Fz G2e | F3 G2A |
G2B d2c | d3 B2d | c2G FGA | G<B,z D2E |\
C2F E2A | B2G D2E | F2D G,1A, | B,3- B,2 :|


